dist/visibility.35851cd9.svg

<svg width="127" height="128" viewBox="0 0 127 128" fill="none" xmlns="http://www.w3.org/2000/svg">
<path d="M119.983 58.023C118.963 56.6928 117.076 56.4563 115.768 57.493C114.46 58.5305 114.227 60.4495 115.247 61.7798C116.249 63.0873 116.249 64.913 115.247 66.2205C107.901 75.7993 98.3964 82.997 87.6962 87.3488C93.3201 81.2245 96.7637 73.0123 96.7637 64C96.7637 55.0233 93.3489 46.8405 87.7729 40.7293C93.9558 43.2578 99.768 46.7328 104.971 51.0718C105.617 51.61 106.261 52.1683 106.886 52.7313C108.128 53.8495 110.026 53.732 111.125 52.4693C112.225 51.2065 112.109 49.276 110.868 48.158C110.186 47.5438 109.483 46.935 108.779 46.3483C95.9429 35.6445 79.7153 29.7498 63.0864 29.7498C40.7071 29.7498 19.9692 40.055 6.19033 58.0233C3.49157 61.5425 3.49157 66.4583 6.19033 69.9778C19.9692 87.946 40.7071 98.2513 63.0864 98.2513C85.4653 98.2513 106.203 87.946 119.983 69.9778C122.681 66.4578 122.681 61.5423 119.983 58.023ZM10.9264 66.2205C9.92395 64.913 9.92395 63.0873 10.9264 61.7798C18.2704 52.2028 27.773 45.006 38.4712 40.6538C32.8532 46.775 29.4091 54.984 29.4091 64C29.4091 73.0128 32.8529 81.225 38.4709 87.3465C27.773 82.9943 18.2702 75.7975 10.9264 66.2205ZM63.123 92.1418C63.111 92.1418 63.0989 92.142 63.0867 92.142C63.0744 92.142 63.0626 92.1418 63.0503 92.1418C47.8083 92.1218 35.4153 79.5063 35.4153 64C35.4153 48.4938 47.808 35.8783 63.0503 35.8583C63.0623 35.8583 63.0744 35.858 63.0867 35.858C63.096 35.858 63.1053 35.8583 63.1147 35.8583C78.3604 35.8735 90.7578 48.4908 90.7578 64C90.7578 79.5063 78.365 92.1218 63.123 92.1418Z" fill="#505050"/>
<path d="M63.0865 51.04C56.0595 51.04 50.3436 56.8533 50.3436 64C50.3436 71.1468 56.0595 76.96 63.0865 76.96C70.1135 76.96 75.8293 71.1468 75.8293 64C75.8293 56.8533 70.1135 51.04 63.0865 51.04ZM63.0865 70.8515C59.3728 70.8515 56.3498 67.777 56.3498 64C56.3498 60.223 59.3728 57.1485 63.0865 57.1485C66.8002 57.1485 69.8232 60.223 69.8232 64C69.8232 67.777 66.8002 70.8515 63.0865 70.8515Z" fill="#505050"/>
<path d="M63.0864 0C61.4277 0 60.0834 1.36725 60.0834 3.05425V14.5075C60.0834 16.1945 61.4277 17.5617 63.0864 17.5617C64.7452 17.5617 66.0895 16.1945 66.0895 14.5075V3.05425C66.0895 1.36725 64.7449 0 63.0864 0Z" fill="#505050"/>
<path d="M63.0864 110.438C61.4277 110.438 60.0834 111.805 60.0834 113.492V124.946C60.0834 126.633 61.4277 128 63.0864 128C64.7452 128 66.0895 126.633 66.0895 124.946V113.492C66.0895 111.805 64.7447 110.438 63.0864 110.438Z" fill="#505050"/>
<path d="M107.583 18.745C106.411 17.5525 104.51 17.5525 103.336 18.745L97.7328 24.4437C96.5601 25.6365 96.5601 27.5702 97.7328 28.7635C98.3193 29.3597 99.0875 29.658 99.8564 29.658C100.625 29.658 101.393 29.3597 101.98 28.7635L107.584 23.0647C108.756 21.872 108.756 19.9382 107.583 18.745Z" fill="#505050"/>
<path d="M28.4405 99.2364C27.268 98.0442 25.3667 98.0439 24.1936 99.2364L18.5899 104.935C17.4171 106.128 17.4171 108.062 18.5899 109.255C19.1764 109.851 19.9451 110.149 20.7135 110.149C21.4819 110.149 22.2503 109.851 22.837 109.255L28.4408 103.556C29.6133 102.363 29.6133 100.43 28.4405 99.2364Z" fill="#505050"/>
<path d="M28.4403 24.444L22.8366 18.745C21.6638 17.5525 19.7624 17.5525 18.5897 18.745C17.4169 19.9382 17.4172 21.8717 18.5897 23.0647L24.1934 28.7635C24.7797 29.3597 25.5486 29.658 26.317 29.658C27.0854 29.658 27.8543 29.3597 28.4405 28.7635C29.6131 27.5702 29.6128 25.6367 28.4403 24.444Z" fill="#505050"/>
<path d="M107.583 104.935L101.98 99.2364C100.806 98.0439 98.9055 98.0439 97.7322 99.2364C96.5595 100.43 96.5595 102.363 97.7322 103.556L103.336 109.255C103.922 109.851 104.691 110.149 105.46 110.149C106.228 110.149 106.996 109.851 107.583 109.255C108.756 108.062 108.756 106.128 107.583 104.935Z" fill="#505050"/>
</svg>

<?xml version="1.0" encoding="utf-8"?>
<!-- Generator: Adobe Illustrator 23.0.2, SVG Export Plug-In . SVG Version: 6.00 Build 0)  -->
<svg version="1.1" id="Ebene_1" xmlns="http://www.w3.org/2000/svg" xmlns:xlink="http://www.w3.org/1999/xlink" x="0px" y="0px"
	 viewBox="0 0 127 128" style="enable-background:new 0 0 127 128;" xml:space="preserve">
<style type="text/css">
	.st0{fill:#505050;}
</style>
<path class="st0" d="M120,58c-1-1.3-2.9-1.6-4.2-0.5c-1.3,1-1.5,3-0.5,4.3c1,1.3,1,3.1,0,4.4c-7.3,9.6-16.9,16.8-27.6,21.1
	c5.6-6.1,9.1-14.3,9.1-23.3c0-9-3.4-17.2-9-23.3c6.2,2.5,12,6,17.2,10.3c0.6,0.5,1.3,1.1,1.9,1.7c1.2,1.1,3.1,1,4.2-0.3
	c1.1-1.3,1-3.2-0.3-4.3c-0.7-0.6-1.4-1.2-2.1-1.8C95.9,35.6,79.7,29.7,63.1,29.7C40.7,29.7,20,40.1,6.2,58c-2.7,3.5-2.7,8.4,0,12
	c13.8,18,34.5,28.3,56.9,28.3c22.4,0,43.1-10.3,56.9-28.3C122.7,66.5,122.7,61.5,120,58z M10.9,66.2c-1-1.3-1-3.1,0-4.4
	c7.3-9.6,16.8-16.8,27.5-21.1C32.9,46.8,29.4,55,29.4,64c0,9,3.4,17.2,9.1,23.3C27.8,83,18.3,75.8,10.9,66.2z M63.1,92.1
	C63.1,92.1,63.1,92.1,63.1,92.1C63.1,92.1,63.1,92.1,63.1,92.1c-15.3,0-27.7-12.6-27.7-28.1c0-15.5,12.4-28.1,27.6-28.1c0,0,0,0,0,0
	c0,0,0,0,0,0c15.2,0,27.6,12.6,27.6,28.1C90.8,79.5,78.4,92.1,63.1,92.1z"/>
<path class="st0" d="M63.1,51c-7,0-12.7,5.8-12.7,13c0,7.1,5.7,13,12.7,13c7,0,12.7-5.8,12.7-13C75.8,56.9,70.1,51,63.1,51z
	 M63.1,70.9c-3.7,0-6.7-3.1-6.7-6.9s3-6.9,6.7-6.9c3.7,0,6.7,3.1,6.7,6.9S66.8,70.9,63.1,70.9z"/>
<path class="st0" d="M63.1,0c-1.7,0-3,1.4-3,3.1v11.5c0,1.7,1.3,3.1,3,3.1c1.7,0,3-1.4,3-3.1V3.1C66.1,1.4,64.7,0,63.1,0z"/>
<path class="st0" d="M63.1,110.4c-1.7,0-3,1.4-3,3.1v11.5c0,1.7,1.3,3.1,3,3.1c1.7,0,3-1.4,3-3.1v-11.5
	C66.1,111.8,64.7,110.4,63.1,110.4z"/>
<path class="st0" d="M107.6,18.7c-1.2-1.2-3.1-1.2-4.2,0l-5.6,5.7c-1.2,1.2-1.2,3.1,0,4.3c0.6,0.6,1.4,0.9,2.1,0.9
	c0.8,0,1.5-0.3,2.1-0.9l5.6-5.7C108.8,21.9,108.8,19.9,107.6,18.7z"/>
<path class="st0" d="M28.4,99.2c-1.2-1.2-3.1-1.2-4.2,0l-5.6,5.7c-1.2,1.2-1.2,3.1,0,4.3c0.6,0.6,1.4,0.9,2.1,0.9
	c0.8,0,1.5-0.3,2.1-0.9l5.6-5.7C29.6,102.4,29.6,100.4,28.4,99.2z"/>
<path class="st0" d="M28.4,24.4l-5.6-5.7c-1.2-1.2-3.1-1.2-4.2,0c-1.2,1.2-1.2,3.1,0,4.3l5.6,5.7c0.6,0.6,1.4,0.9,2.1,0.9
	s1.5-0.3,2.1-0.9C29.6,27.6,29.6,25.6,28.4,24.4z"/>
<path class="st0" d="M107.6,104.9l-5.6-5.7c-1.2-1.2-3.1-1.2-4.2,0c-1.2,1.2-1.2,3.1,0,4.3l5.6,5.7c0.6,0.6,1.4,0.9,2.1,0.9
	c0.8,0,1.5-0.3,2.1-0.9C108.8,108.1,108.8,106.1,107.6,104.9z"/>
</svg>
